!!!OTL: Shixuxie
!!!ARE: Asia, China,ÿHubei
!! I, 459(2)
!!!SCT: C1461
!!!YEM: Copyright 1995, estate of Helmut Schaffrath.
**kern
*ICvox
*Ivox
!! Mixed meters:  2/4; 3/4
*M3/4
*k[f#c#]
*D:
{16ee
16gg
8ee
8dd
8ee
=1
8dd
16ee
16dd
4b
=2
4ee
8b
4a
8e}
=3
*M2/4
{8e
8e
16b
16dd
16b
16a
=4
16b
16dd
8a
4e
=5
2a}
=6
{8.a
16a
16b
16cc#
8b
=7
8.b
16dd
4a
=8
16b
16cc#
4b
16cc#
16b
=9
2a}
=10
{8.ee
16ff#
8dd
8ee
=11
16ee
16ff#
8b
8r
16ee
16ff#
=12
8b
4b
8ee
=13
2dd}
=14
*M3/4
{8ee
4ee
16ff#
16ee
8b
16b
16a
=15
8.b
16a
16b
16dd
16b
16dd
8b
8f#}
=16
*M2/4
{8.b
16a
8b
16b
16a
=17
16b
16dd
4ee
8a
=18
16b
16dd
16b
16a
8e
8a
=19
*M3/4
16b
16dd
4b
16a
16f#
4e}
=20
*M2/4
{8.a
16b
8e
8a
=21
16b
16dd
8e
8r
16b
16a
=22
8e
4e
16a
16b
=23
2g}
=24
*M3/4
{16ee
16gg
4ee
16gg
16ee
8b
16b
16a
=25
8.b
16a
16b
16dd
16b
16a
8a
8f#}
=26
{16a
16a
16a
16a
16b
16dd
16b
16a
16a
16b
16a
16f#
=27
*M2/4
8b
4ee
16b
16a
=28
8a
16b
16a
8e
8a
=29
*M3/4
16b
16dd
8b
8r
16a
16f#
4e}
=30
*M2/4
{8.a
16b
8e
8a
=31
16b
16a
8e
8r
16b
16a
=32
8e
4e
8a
=33
2g}
=34
*M3/4
{16ee
16gg
4ee
16gg
16ee
8b
16b
16a
=35
8.b
16ee
16b
16cc#
16b
16a
8a
8a}
=36
{16a
16a
16a
16a
16b
16dd
16b
16a
16a
16b
16a
16f#
=37
*M2/4
8b
4ee
16b
16a
=38
8a
16b
16a
8e
8a
=39
*M3/4
16b
16dd
8b
8r
16a
16f#
4e}
=40
*M2/4
{8.a
16b
8e
8a
=41
8e
8e
8r
8a
=42
8e
4e
8a
=43
2g}
=44
*M3/4
{16ee
16gg
4ee
16gg
16ee
8b
16b
16a
=45
8b
4ee
16b
16a
16b
16cc#
8a}
=46
*M2/4
{8.b
16a
8a
16b
16a
=47
8b
4ee
16b
16a
=48
8b
16b
16a
8e
8a
=49
*M3/4
16b
16dd
8b
8r
16a
16f#
4e}
=50
*M2/4
{8.a
16b
8e
8a
=51
16a
16b
8e
8r
8a
=52
8e
4e
8a
=53
2g}
=54
*M3/4
{16ee
16gg
4ee
16gg
16ee
8b
16b
16a
=55
8b
4ee
16b
16a
16b
16cc#
8a}
=56
*M2/4
{8.b
16a
16b
16ee
16b
16a
=57
8b
4ee
16b
16a
=58
8b
16b
16a
8e
8a
=59
*M3/4
16b
16dd
8b
8r
16a
16f#
4e}
=60
*M2/4
{8.a
16b
8e
8a
=61
8a
8e
8r
8a
=62
8e
4e
8a
=63
2g}
=64
*M3/4
{8ee
4ee
16gg
16ee
8b
16b
16a
=65
8b
4ee
8a
8b
16b
16a}
=66
{8.b
16ee
8b
16b
16a
8b
16b
16a
=67
*M2/4
8b
4ee
16b
16ee
=68
8b
16b
16a
8e
8a
=69
*M3/4
16b
16dd
8b
8r
16a
16f#
4e}
=70
*M2/4
{8.a
16b
8e
8a
=71
8a
8e
8r
8a
=72
8e
4e
8a
=73
2g}
=74
*M3/4
{16ee
16gg
4ee
16gg
16ee
8b
16b
16a
=75
8b
4ee
8a
8b
16b
16a}
=76
{16a
16a
16a
16a
16b
16dd
16b
16a
16b
16cc#
8a
=77
*M2/4
8b
4ee
8a
=78
8a
16b
16a
8e
8a
=79
*M3/4
16b
16dd
8b
8r
16a
16f#
4e}
=80
*M2/4
{8.a
16b
8e
8a
=81
8e
8e
8r
16b
16a
=82
8e
4e
8a
=83
2g}
=84
*M3/4
{8b
4ee
16gg
16ee
8b
16b
16a
=85
8b
4ee
8a
8b
16b
16a}
=86
{16a
16a
16a
16a
16b
16dd
16b
16a
16b
16cc#
8a
=87
*M2/4
8b
4ee
8a
=88
8b
16b
16a
8e
8a
=89
*M3/4
16b
16dd
8b
8r
16a
16f#
4e}
=90
*M2/4
{8.b
16a
8e
8a
=91
16a
16b
8e
8r
16a
16b
=92
8e
4e
8a
=93
2g}
=94
*M3/4
{8ee
4ee
16gg
16ee
8b
16b
16a
=95
8b
4ee
8a
8b
16b
16a}
=96
*M2/4
{8.b
16a
16b
16cc#
8a
=97
16a
16b
16a
16b
16b
16cc#
16b
16a
=98
8b
4ee
8a
=99
8b
16b
16a
8e
8a
=100
16b
16dd
8b
8r
16a
16f#
=101
4e}
{8e
8a
=102
16b
16dd
8b
8r
16a
16f#
=103
2e}
==
!!!AGN: Xiaodiao. Biaoda aiqing
!!!ONB: ESAC (Essen Associative Code) Database: HUANG
!!!AMT: irregular
!!!AIN: vox
!!!EED: Helmut Schaffrath
!!!EEV: 1.0
*-
